svgs/sharp-regular/road-barrier.svg

<svg xmlns="http://www.w3.org/2000/svg" viewBox="0 0 640 512"><!--! Font Awesome Pro 6.4.0 by @fontawesome - https://fontawesome.com License - https://fontawesome.com/license (Commercial License) Copyright 2023 Fonticons, Inc. --><path d="M48 56V32H0V56 456v24H48V456l0-152H592l0 152v24h48V456l0-152V256 128 80l0-24V32H592V56l0 24H48h0V56zm544 72V256H506.8l64-128H592zm-277.2 0h74.3l-64 128H250.8l64-128zM453.2 256H378.8l64-128h74.3l-64 128zm-192-128l-64 128H122.8l64-128h74.3zm-128 0l-64 128H48V128h85.2z"/></svg>

<svg xmlns="http://www.w3.org/2000/svg" viewBox="0 0 640 512"><!--! Font Awesome Pro 6.6.0 by @fontawesome - https://fontawesome.com License - https://fontawesome.com/license (Commercial License) Copyright 2024 Fonticons, Inc. --><path d="M48 56l0-24L0 32 0 56 0 456l0 24 48 0 0-24 0-152 544 0 0 152 0 24 48 0 0-24 0-152 0-48 0-128 0-48 0-24 0-24-48 0 0 24 0 24L48 80s0 0 0 0l0-24zm544 72l0 128-85.2 0 64-128 21.2 0zm-277.2 0l74.3 0-64 128-74.3 0 64-128zM453.2 256l-74.3 0 64-128 74.3 0-64 128zm-192-128l-64 128-74.3 0 64-128 74.3 0zm-128 0l-64 128L48 256l0-128 85.2 0z"/></svg>
